X:1
T:Lauda Sion 2
T:André Vierendeels
T:Early Melody
T:(23/02/18)
T:Lauda Sion 2
T:ad voces aequales
T:©
T:©
C:André Vierendeels
Z:©
%%score [ 1 [ 2 3 ] ]
L:1/8
Q:1/4=120
M:2/2
K:D
V:1 treble-8 nm="Tenor" snm="T"
V:2 bass nm="Bass 1" snm="B 1"
V:3 bass nm="Bass 2" snm="B 2"
V:1
 d4 A4 | B4 B4 | A4 G4 | F4 !fermata!D4 | F4 A4 | G4 F4 | E6 E2 | D4 !fermata!D4 | A4 B2 c2 | %9
w: Lau- da|Si- on|sal- va-|to- rem,|lau- da|du- cem|et pa-|sto- rem,|in hy- *|
 d4 c4 | B6 B2 | !fermata!A8 | F4 A4 | B4 A4 | G4 A4 | F4 !fermata!D4 | F2 ^G2 A4 | B4 c4 | B6 A2 | %19
w: mnis et|can- ti-|cis.|Quan- tum|po- tes|tan- tum|au- de,|qui- * a|ma- jor|o- mni|
 A4 !fermata!A4 | d2 e2 d2 =c2 | B4 A4 | G4 F4 | E6 E2 | !fermata!F8 |] %25
w: lau- de,|nec _ _ _|_ lau-|da- re|suf- fi-|cis.|
V:2
 B,4 F,4 | D,4 G,4 | C,4 D,4 | C,4 !fermata!B,,4 | D,4 E,4 | E,4 D,4 | C,2 D,2 E,2 C,2 | %7
w: Lau- da|Si- on|sal- va-|to- rem,|lau- da|du- cem|et _ _ pa-|
 F,4 !fermata!B,,4 | F,4 F,4 | B,4 E,4 | ^G,2 A,2 B,2 G,2 | !fermata!E,8 | D,4 E,4 | G,4 F,4 | %14
w: sto- rem,|in hy-|mnis et|can- * * ti-|cis|Quan- tum|po- tes|
 D,4 D,4 | D,4 .!fermata!F,4 | D,2 E,2 E,4 | D,4 A,4 | ^G,2 A,2 B,2 E,2 | F,4 !fermata!E,4 | %20
w: tan- tum|au- de,|qui- * a|ma- jor|o- * * mni|lau- de,|
 F,2 E,2 F,4 | G,2 F,2 E,2 F,2 | D,4 D,4 | C,2 D,2 E,2 C,2 | !fermata!D,8 |] %25
w: nec _ _|lau- * * *|da- re|suf- * * fi-|cis.|
V:3
 G,4 D,4 | G,,4 E,4 | A,,4 G,,4 | A,,4 !fermata!G,,4 | D,4 A,,4 | =C,4 D,4 | A,,4 A,,4 | %7
w: Lau- da|Si- on|sal- va-|to- rem,|lau- da|du- cem|et pa-|
 D,4 !fermata!G,,4 | D,4 B,,4 | G,,4 A,,4 | E,4 E,4 | !fermata!A,,8 | D,4 A,,4 | G,,4 D,4 | %14
w: sto- rem,|in hy-|mnis et|can- ti-|cis.|Quan- tum|po- tes|
 G,,4 F,,4 | B,,4 !fermata!D,4 | B,,4 A,,4 | G,,4 A,,4 | E,6 C,2 | D,4 !fermata!A,,4 | %20
w: tan- tym|au- de,|qui- a|ma- jor|o- mni|lau- de,|
 D,2 G,,2 D,4 | G,,4 A,,2 D,2 | G,,4 D,4 | A,,4 A,,4 | !fermata!D,8 |] %25
w: nec _ _|lau- * *|da- re|suf- fi-|cis.|

